assets_src/svg/clock_add_24_regular.svg

<svg xmlns="http://www.w3.org/2000/svg" width="24" height="24" viewBox="0 0 24 24">
<path d="M3.5 12a8.5 8.5 0 1 1 17 0 8.5 8.5 0 0 1-17 0M12 2C6.477 2 2 6.477 2 12s4.477 10 10 10 10-4.477 10-10S17.523 2 12 2m-.007 4.648a.75.75 0 0 0-1.493.102v6l.007.102a.75.75 0 0 0 .743.648h4l.102-.007A.75.75 0 0 0 15.25 12H12V6.75z"/>
<path d="M13.5 18.0C13.5 15.514719009399414 15.514719009399414 13.5 18.0 13.5C20.485280990600586 13.5 22.5 15.514719009399414 22.5 18.0C22.5 20.485280990600586 20.485280990600586 22.5 18.0 22.5C15.514719009399414 22.5 13.5 20.485280990600586 13.5 18.0Z"/>
<path d="M17.399999618530273 15.5C17.399999618530273 15.168628692626953 17.668628692626953 14.899999618530273 18.0 14.899999618530273C18.331371307373047 14.899999618530273 18.600000381469727 15.168628692626953 18.600000381469727 15.5V17.399999618530273H20.5C20.831371307373047 17.399999618530273 21.100000381469727 17.668628692626953 21.100000381469727 18.0C21.100000381469727 18.331371307373047 20.831371307373047 18.600000381469727 20.5 18.600000381469727H18.600000381469727V20.5C18.600000381469727 20.831371307373047 18.331371307373047 21.100000381469727 18.0 21.100000381469727C17.668628692626953 21.100000381469727 17.399999618530273 20.831371307373047 17.399999618530273 20.5V18.600000381469727H15.5C15.168628692626953 18.600000381469727 14.899999618530273 18.331371307373047 14.899999618530273 18.0C14.899999618530273 17.668628692626953 15.168628692626953 17.399999618530273 15.5 17.399999618530273H17.399999618530273Z"/>
</svg>

<svg xmlns="http://www.w3.org/2000/svg" width="24" height="24" viewBox="0 0 24 24">
<path d="M3.5 12C3.5 7.30558 7.30558 3.5 12 3.5C16.6944 3.5 20.5 7.30558 20.5 12C20.5 16.6944 16.6944 20.5 12 20.5C7.30558 20.5 3.5 16.6944 3.5 12ZM12 2C6.47715 2 2 6.47715 2 12C2 17.5228 6.47715 22 12 22C17.5228 22 22 17.5228 22 12C22 6.47715 17.5228 2 12 2ZM11.9931 6.64827C11.9435 6.28233 11.6295 6 11.25 6C10.836 6 10.5 6.336 10.5 6.75V12.75L10.5069 12.8517C10.5565 13.2177 10.8705 13.5 11.25 13.5H15.25L15.3517 13.4931C15.7177 13.4435 16 13.1295 16 12.75C16 12.336 15.664 12 15.25 12H12V6.75L11.9931 6.64827Z"/>
<path d="M13.5 18.0C13.5 15.514719009399414 15.514719009399414 13.5 18.0 13.5C20.485280990600586 13.5 22.5 15.514719009399414 22.5 18.0C22.5 20.485280990600586 20.485280990600586 22.5 18.0 22.5C15.514719009399414 22.5 13.5 20.485280990600586 13.5 18.0Z"/>
<path d="M17.399999618530273 15.5C17.399999618530273 15.168628692626953 17.668628692626953 14.899999618530273 18.0 14.899999618530273C18.331371307373047 14.899999618530273 18.600000381469727 15.168628692626953 18.600000381469727 15.5V17.399999618530273H20.5C20.831371307373047 17.399999618530273 21.100000381469727 17.668628692626953 21.100000381469727 18.0C21.100000381469727 18.331371307373047 20.831371307373047 18.600000381469727 20.5 18.600000381469727H18.600000381469727V20.5C18.600000381469727 20.831371307373047 18.331371307373047 21.100000381469727 18.0 21.100000381469727C17.668628692626953 21.100000381469727 17.399999618530273 20.831371307373047 17.399999618530273 20.5V18.600000381469727H15.5C15.168628692626953 18.600000381469727 14.899999618530273 18.331371307373047 14.899999618530273 18.0C14.899999618530273 17.668628692626953 15.168628692626953 17.399999618530273 15.5 17.399999618530273H17.399999618530273ZM17.399999618530273 15.5C17.399999618530273 15.831371307373047 17.668628692626953 16.100000381469727 18.0 16.100000381469727C18.331371307373047 16.100000381469727 18.600000381469727 15.831371307373047 18.600000381469727 15.5ZM19.899999618530273 18.0C19.899999618530273 18.331371307373047 20.168628692626953 18.600000381469727 20.5 18.600000381469727V17.399999618530273C20.168628692626953 17.399999618530273 19.899999618530273 17.668628692626953 19.899999618530273 18.0ZM17.399999618530273 20.5H18.600000381469727C18.600000381469727 20.168628692626953 18.331371307373047 19.899999618530273 18.0 19.899999618530273C17.668628692626953 19.899999618530273 17.399999618530273 20.168628692626953 17.399999618530273 20.5ZM15.5 17.399999618530273V18.600000381469727C15.831371307373047 18.600000381469727 16.100000381469727 18.331371307373047 16.100000381469727 18.0C16.100000381469727 17.668628692626953 15.831371307373047 17.399999618530273 15.5 17.399999618530273Z"/>
</svg>
